X: 4
T: Return Of Spring, The
Z: ceolachan
S: https://thesession.org/tunes/6645#setting18302
R: barndance
M: 4/4
L: 1/8
K: Gmaj
M: 2/4
G [|d>d dB | G>G GD | G>B ed | d^c =cB |
c>c cA | F>F FE | F>A ed | dc Bc |
dd/d/ dB | G/G/G GD | G>B ed | d^>c =cB |
Af f>B | Ae e>c | dB c/B/A/F/ | GF G2 ||
g2 ge | ff/f/ f>d | e>e eB | d2- dB |
GG/B/ ed | F>F FD | FF/A/ ed | G2 G/A/B/d/ |
gg/g/ ge | f>f fd | ee/e/ eB | d2 dB/A/ |
GG/B/ ed | F>G Fe/f/ | gg/f/ ef | g2- g>e ||
|: dB/d/ g>f | ec/e/ a>g | fd e>f | e/f/e/d/ B>c |
dB/d/ gg/f/ | ec/e/ aa/g/ | fd ef |[1 g2- g>e :|[2 gg/g/ ge |]
